X: 65
T: Lord Who Throughout These Forty Days
M: 4/4 % time signature
L: 1/4 % default length
%%staves (S1V1 S1V2) | (S2V1 S2V2) 
V: S1V1 clef=treble 
%%MIDI beat 127 125 110 1
V: S1V2 
%%MIDI beat 127 125 110 1
V: S2V1 clef=bass 
%%MIDI beat 127 125 110 1
V: S2V2 
%%MIDI beat 127 125 110 1
K: F % key signature
%
%%MIDI program 1 0 % Piano 1
%%MIDI program 2 0 % Piano 1
%%MIDI program 3 0 % Piano 1
%%MIDI program 4 0 % Piano 1
%
% 1
[V: S1V1] [Q:1/4=100] F | F E F A | G G F F | B A F G | A3
w: 1.~Lord, who through- out these for- ty days For us didst fast and pray, 
w: 2.~As thou with Sa- tan didst con- tend, And didst the vic- t'ry win, 
w: 3.~As thou didst hun- ger bear, and thirst, So teach us, gra- cious Lord, 
w: 4.~And through these days of pen- i- tence, And through thy pa- ssion- tide, 
w: 5.~A- bide with us, that so, this life Of suf- f'ring o- ver past, 
[V: S1V2]  C | C C C F | F E F F | F F F D | E3
[V: S2V1]  A, | G, G, A, A, | D C A, A, | B, C D D | ^C3
[V: S2V2]  F, | C, C, F, D, | B,, C, F, F, | D, F, B, B, | A,3
% 5
[V: S1V1]  A | A B c A | F G A !sintro!A | G F F E | F3 !eintro!|]
w: Teach us with thee to mourn our sins And close by thee to stay. 
w: O give us strength in thee to fight, In thee to con- quer sin. 
w: To die to self, and chief- ly live By thy most ho- ly Word. 
w: Yea, ev- er- more in life and death, Je- sus, with us a- bide. 
w: An Eas- ter of un- end- ing joy We may at- tain at last. 
[V: S1V2]  F | F F E E | D E F F | E D D C | C3 |]
[V: S2V1]  =C | C B, G, A, | A, C C C | C A, G, G, | A,3 |]
[V: S2V2]  F, | F, D, C, C, | D, C, F, F, | C, D, B,, C, | F,3 |]
% 11


